X:5075
T:Jimmy Creaney's
M:6/8
R:Jig
L:1/8
Q:180
C:Aidan Crossey
K:G
|:E2F|GFG BAG|FEF GFG|ABA ABc|ded cAF|
GFG BAG|FEF GFG|ABA G2F|G3:||
|:F2G|ABA ABc|ded dcB|ABA ABc|d3 d2A|
GFG BAG|FEF GFG|ABA G2F|G3:||
